svg/fluentui-system-icons/ic_fluent_arrow_maximize_vertical_20_regular.svg

<svg width="20" height="20" viewBox="0 0 20 20" fill="none" xmlns="http://www.w3.org/2000/svg">
<path d="M9.64645 1.40426C9.84171 1.209 10.1583 1.209 10.3536 1.40426L12.4749 3.52558C12.6701 3.72084 12.6701 4.03742 12.4749 4.23269C12.2796 4.42795 11.963 4.42795 11.7678 4.23269L10.5 2.96492V7.50044C10.5 7.77659 10.2761 8.00044 10 8.00044C9.72386 8.00044 9.5 7.77659 9.5 7.50044V2.96492L8.23223 4.23269C8.03697 4.42795 7.72039 4.42795 7.52513 4.23269C7.32986 4.03742 7.32986 3.72084 7.52513 3.52558L9.64645 1.40426ZM4 10.0004C4 9.7243 4.22386 9.50044 4.5 9.50044H15.5C15.7761 9.50044 16 9.7243 16 10.0004C16 10.2766 15.7761 10.5004 15.5 10.5004H4.5C4.22386 10.5004 4 10.2766 4 10.0004ZM10.5 17.036L10.5 12.5004C10.5 12.2243 10.2761 12.0004 10 12.0004C9.72386 12.0004 9.5 12.2243 9.5 12.5004L9.5 17.036L8.23223 15.7682C8.03697 15.5729 7.72039 15.5729 7.52513 15.7682C7.32986 15.9635 7.32986 16.28 7.52513 16.4753L9.64645 18.5966C9.84171 18.7919 10.1583 18.7919 10.3536 18.5966L12.4749 16.4753C12.6701 16.28 12.6701 15.9635 12.4749 15.7682C12.2796 15.5729 11.963 15.5729 11.7678 15.7682L10.5 17.036Z" fill="#212121"/>
</svg>

<svg xmlns="http://www.w3.org/2000/svg" width="20" height="20"><path d="M9.646 1.404a.5.5 0 0 1 .708 0l2.12 2.122a.5.5 0 0 1-.706.707L10.5 2.965V7.5a.5.5 0 0 1-1 0V2.965L8.232 4.233a.5.5 0 1 1-.707-.707l2.121-2.122ZM4 10a.5.5 0 0 1 .5-.5h11a.5.5 0 0 1 0 1h-11A.5.5 0 0 1 4 10Zm6.5 7.036V12.5a.5.5 0 0 0-1 0v4.536l-1.268-1.268a.5.5 0 1 0-.707.707l2.121 2.122a.5.5 0 0 0 .708 0l2.12-2.122a.5.5 0 0 0-.706-.707L10.5 17.036Z"/></svg>
